svg/logo/chrome_line.svg

<?xml version="1.0" encoding="UTF-8"?>
<svg width="24px" height="24px" viewBox="0 0 24 24" version="1.1" xmlns="http://www.w3.org/2000/svg" xmlns:xlink="http://www.w3.org/1999/xlink">
    <title>chrome_line</title>
    <g id="页面-1" stroke="none" stroke-width="1" fill="none" fill-rule="evenodd">
        <g id="Logo" transform="translate(-48.000000, -96.000000)">
            <g id="chrome_line" transform="translate(48.000000, 96.000000)">
                 <path d="M24,0 L24,24 L0,24 L0,0 L24,0 Z M12.5934901,23.257841 L12.5819402,23.2595131 L12.5108777,23.2950439 L12.4918791,23.2987469 L12.4918791,23.2987469 L12.4767152,23.2950439 L12.4056548,23.2595131 C12.3958229,23.2563662 12.3870493,23.2590235 12.3821421,23.2649074 L12.3780323,23.275831 L12.360941,23.7031097 L12.3658947,23.7234994 L12.3769048,23.7357139 L12.4804777,23.8096931 L12.4953491,23.8136134 L12.4953491,23.8136134 L12.5071152,23.8096931 L12.6106902,23.7357139 L12.6232938,23.7196733 L12.6232938,23.7196733 L12.6266527,23.7031097 L12.609561,23.275831 C12.6075724,23.2657013 12.6010112,23.2592993 12.5934901,23.257841 L12.5934901,23.257841 Z M12.8583906,23.1452862 L12.8445485,23.1473072 L12.6598443,23.2396597 L12.6498822,23.2499052 L12.6498822,23.2499052 L12.6471943,23.2611114 L12.6650943,23.6906389 L12.6699349,23.7034178 L12.6699349,23.7034178 L12.678386,23.7104931 L12.8793402,23.8032389 C12.8914285,23.8068999 12.9022333,23.8029875 12.9078286,23.7952264 L12.9118235,23.7811639 L12.8776777,23.1665331 C12.8752882,23.1545897 12.8674102,23.1470016 12.8583906,23.1452862 L12.8583906,23.1452862 Z M12.1430473,23.1473072 C12.1332178,23.1423925 12.1221763,23.1452606 12.1156365,23.1525954 L12.1099173,23.1665331 L12.0757714,23.7811639 C12.0751323,23.7926639 12.0828099,23.8018602 12.0926481,23.8045676 L12.108256,23.8032389 L12.3092106,23.7104931 L12.3186497,23.7024347 L12.3186497,23.7024347 L12.3225043,23.6906389 L12.340401,23.2611114 L12.337245,23.2485176 L12.337245,23.2485176 L12.3277531,23.2396597 L12.1430473,23.1473072 Z" id="MingCute" fill-rule="nonzero"></path>
                <path d="M12,2 C17.5228,2 22,6.47715 22,12 C22,17.5228 17.5228,22 12,22 C6.47715,22 2,17.5228 2,12 C2,6.47715 6.47715,2 12,2 Z M4.546,9.0893 C4.19349,9.99136 4,10.9731 4,12 C4,15.9554128 6.87064281,19.2403917 10.6422673,19.88521 L10.8895,19.9235 L12.5978,16.9646 C12.4018,16.988 12.2023,17 12,17 C10.1973391,17 8.6174189,16.0459985 7.73768839,14.6153045 L4.546,9.0893 Z M19.4185,9 L16.0004,9 C16.6281,9.83566 17,10.8744 17,12 C17,12.9417 16.7397,13.8226 16.287,14.5747 L13.2069,19.9096 C17.0526,19.3276 20,16.008 20,12 C20,10.9391 19.7935,9.92643 19.4185,9 Z M12,9 C10.3431,9 9,10.3431 9,12 C9,13.6569 10.3431,15 12,15 C13.6569,15 15,13.6569 15,12 C15,10.3431 13.6569,9 12,9 Z M12,4 C9.53683654,4 7.33367678,5.11319342 5.86616932,6.86394053 L5.69363,7.07706 L7.40112,10.0345 C8.13533154,8.31882692 9.80156046,7.09695932 11.7632231,7.00550748 L12,7 L18.2454,7 C16.7793,5.17108 14.5264,4 12,4 Z" id="形状" fill="#09244B"></path>
            </g>
        </g>
    </g>
</svg>

<svg xmlns="http://www.w3.org/2000/svg" width="24" height="24"><g fill="none" fill-rule="evenodd"><path d="M24 0v24H0V0h24ZM12.593 23.258l-.011.002-.071.035-.02.004-.014-.004-.071-.035c-.01-.004-.019-.001-.024.005l-.004.01-.017.428.005.02.01.013.104.074.015.004.012-.004.104-.074.012-.016.004-.017-.017-.427c-.002-.01-.009-.017-.017-.018Zm.265-.113-.013.002-.185.093-.01.01-.003.011.018.43.005.012.008.007.201.093c.012.004.023 0 .029-.008l.004-.014-.034-.614c-.003-.012-.01-.02-.02-.022Zm-.715.002a.023.023 0 0 0-.027.006l-.006.014-.034.614c0 .012.007.02.017.024l.015-.002.201-.093.01-.008.004-.011.017-.43-.003-.012-.01-.01-.184-.092Z"/><path fill="#09244B" d="M12 2c5.523 0 10 4.477 10 10s-4.477 10-10 10S2 17.523 2 12 6.477 2 12 2ZM4.546 9.09a8.002 8.002 0 0 0 6.096 10.796l.248.038 1.708-2.96a4.997 4.997 0 0 1-4.86-2.35L4.546 9.09ZM19.419 9H16c.628.836 1 1.874 1 3 0 .942-.26 1.823-.713 2.575l-3.08 5.335A8.002 8.002 0 0 0 19.419 9ZM12 9a3 3 0 1 0 0 6 3 3 0 0 0 0-6Zm0-5a7.983 7.983 0 0 0-6.134 2.864l-.172.213L7.4 10.034a5.002 5.002 0 0 1 4.362-3.028L12 7h6.245A7.985 7.985 0 0 0 12 4Z"/></g></svg>
